X:0502
T:The Dawning of the Day.
C:Irish
N:Sitting in the Stern of a Boat.
M:C
L:1/16
Q:1/4=80 "Slow"
I: :: ::
Z:Jack Campin * www.campin.me.uk * 2009
K:G
D2EF|:G3A  G2F2 TE4   D4  |d2d2 gfed B4 cBAG|G2F2 G2A2 TB4  gfed | B3c   {B}TA4  G8::
     Te3d  e2f2  g4   g2ab|a2g2 f2e2 d4 B4  |e2d2 egfa  g4 (g2ab)| a2g2     Tf3e e8 |
      e2d2 e2f2  g2g2 gfed|B2g2 BgBg A4 BAGF|G2F2 G2A2  B4  gfed |(B2c2) {B}TA4  G8:|
<end>
<start>
